public/images/agent3.svg

<svg width="175" height="175" viewBox="0 0 175 175" fill="none" xmlns="http://www.w3.org/2000/svg">
<circle cx="87.5" cy="87.5" r="86.5" fill="white" stroke="#00C0FF"/>
<path d="M67.9248 73.255H67.818L67.868 72.6087L68.3594 66.2583L64.2401 61.4133C63.4331 60.4646 63.5604 59.0356 64.5005 58.2329C64.806 57.9667 65.1656 57.8057 65.517 57.7343L71.6144 56.2635L74.9456 50.8409C74.9458 50.8405 74.946 50.8401 74.9462 50.8398C75.5988 49.7699 77.0023 49.4359 78.0694 50.0913L78.0726 50.0933C78.3976 50.2958 78.6491 50.5583 78.8345 50.855L78.8369 50.8589L78.8369 50.8589L82.1571 56.2633L88.3373 57.7488C88.3373 57.7488 88.3374 57.7489 88.3375 57.7489C89.543 58.0383 90.275 59.231 90.0174 60.4285H90.3731L89.5316 61.4174L85.4124 66.2584L85.9037 72.6081L85.9038 72.6087L85.3056 72.6549L67.9248 73.255ZM67.9248 73.255C67.9537 73.3852 67.9946 73.5138 68.0481 73.6398C68.5226 74.7954 69.8408 75.3437 71.0006 74.8744L71.0042 74.8729L76.8896 72.4465L82.6527 74.8284L67.9248 73.255ZM88.0964 73.6064C85.233 76.4697 81.2717 78.2408 76.9021 78.2408C72.524 78.2408 68.5591 76.4697 65.6959 73.6068C62.8312 70.73 61.0531 66.7765 61.0531 62.3999C61.0531 58.0232 62.8312 54.0693 65.696 51.1928C68.5595 48.3301 72.5245 46.559 76.9021 46.559C81.2679 46.559 85.233 48.33 88.0964 51.1933C90.9682 54.0694 92.7388 58.0225 92.7388 62.3999C92.7388 66.7777 90.9718 70.731 88.0964 73.6064Z" fill="url(#paint0_linear_91_1340)" stroke="url(#paint1_linear_91_1340)" stroke-width="1.2"/>
<path d="M130.18 76.4085L130.18 76.4086L130.186 76.407C131.175 76.1313 132.272 76.235 133.227 76.7495C133.301 76.7984 133.364 76.8329 133.417 76.861C134.353 77.4322 134.989 78.3263 135.256 79.3225C135.526 80.3346 135.426 81.4389 134.872 82.4123L134.831 82.4838L134.83 82.4868L132.756 86.0778L129.631 84.2756L129.63 84.2753L125.575 81.9315L127.593 78.4384L127.593 78.4385L127.598 78.4297C127.6 78.4252 127.609 78.4099 127.621 78.3893C127.645 78.3476 127.682 78.2844 127.703 78.2455C128.286 77.3069 129.182 76.6764 130.18 76.4085Z" fill="url(#paint2_linear_91_1340)" stroke="url(#paint3_linear_91_1340)" stroke-width="1.2"/>
<path d="M112.155 118.982L107.029 122.363L107.4 116.235L109.775 117.599L112.155 118.982Z" fill="url(#paint4_linear_91_1340)" stroke="url(#paint5_linear_91_1340)" stroke-width="1.2"/>
<path d="M128.884 89.0457L130.517 89.9862L115.646 115.75L114.013 114.809L128.884 89.0457Z" fill="url(#paint6_linear_91_1340)" stroke="url(#paint7_linear_91_1340)" stroke-width="1.2"/>
<path d="M114.201 123.062V135.4H39.6V39.6H114.201L114.213 92.5956L103.475 111.19C103.347 111.391 103.241 111.619 103.178 111.87L103.108 111.939V112.098L103.085 112.137V112.304V112.325L102.228 126.623L102.228 126.624C102.201 127.086 102.307 127.579 102.605 128.016C103.299 129.053 104.698 129.341 105.749 128.634C105.75 128.633 105.751 128.632 105.752 128.632L114.201 123.062ZM91.3137 47.988L90.9144 48.3873L91.3137 47.988C87.6242 44.2988 82.5322 42.013 76.902 42.013C71.2642 42.013 66.1716 44.2945 62.4781 47.988C58.7836 51.6706 56.5111 56.7752 56.5111 62.3997C56.5111 68.0248 58.7843 73.1175 62.4781 76.8114L62.4784 76.8116C66.1719 80.5008 71.272 82.7864 76.902 82.7864C82.5278 82.7864 87.6203 80.5047 91.3137 76.8114L90.8894 76.3871L91.3137 76.8113C95.0029 73.1219 97.2887 68.0299 97.2887 62.3997C97.2887 56.7739 95.007 51.6814 91.3137 47.988ZM101.018 126.748V126.746C101.018 125.482 99.9893 124.471 98.7434 124.471H83.3357C82.0722 124.471 81.0605 125.5 81.0605 126.746C81.0605 128.006 82.075 129.021 83.3357 129.021H98.7434C99.9907 129.021 101.013 128.012 101.018 126.748ZM101.018 119.489V119.487C101.018 118.223 99.9893 117.212 98.7434 117.212H83.3357C82.075 117.212 81.0605 118.226 81.0605 119.487C81.0605 120.747 82.075 121.762 83.3357 121.762H98.7434C99.9935 121.762 101.013 120.739 101.018 119.489ZM55.0494 109.274H98.7434C99.9902 109.274 101.014 108.266 101.014 106.999C101.014 105.745 99.9824 104.736 98.7393 104.736H55.0494C53.7916 104.736 52.7743 105.748 52.7743 106.999C52.7743 108.263 53.8035 109.274 55.0494 109.274ZM55.0494 100.771H98.7434C99.9912 100.771 101.014 99.7574 101.014 98.4958C101.014 97.2324 99.9852 96.2207 98.7393 96.2207H55.0494C53.7888 96.2207 52.7743 97.2351 52.7743 98.4958C52.7743 99.7593 53.8035 100.771 55.0494 100.771ZM55.0494 92.2436H98.7434C99.9884 92.2436 101.014 91.2448 101.014 89.9684C101.014 88.705 99.9852 87.6933 98.7393 87.6933H55.0494C53.786 87.6933 52.7743 88.7225 52.7743 89.9684C52.7743 91.2319 53.8035 92.2436 55.0494 92.2436Z" fill="url(#paint8_linear_91_1340)" stroke="url(#paint9_linear_91_1340)" stroke-width="1.2"/>
<path d="M118.353 94.4453L118.354 94.443C118.364 94.4265 118.369 94.4188 118.378 94.4052C118.386 94.392 118.398 94.3733 118.422 94.3356C118.451 94.2887 118.489 94.2238 118.524 94.1443L123.321 85.836L124.947 86.7781L110.081 112.54L108.453 111.593L118.353 94.4453Z" fill="url(#paint10_linear_91_1340)" stroke="url(#paint11_linear_91_1340)" stroke-width="1.2"/>
<defs>
<linearGradient id="paint0_linear_91_1340" x1="60.4531" y1="62.3999" x2="93.3388" y2="62.3999" gradientUnits="userSpaceOnUse">
<stop offset="0.395452" stop-color="#084196"/>
<stop offset="1" stop-color="#00C0FF"/>
</linearGradient>
<linearGradient id="paint1_linear_91_1340" x1="60.4531" y1="62.3999" x2="93.3388" y2="62.3999" gradientUnits="userSpaceOnUse">
<stop stop-color="#084398"/>
<stop offset="1" stop-color="#00BEFD"/>
</linearGradient>
<linearGradient id="paint2_linear_91_1340" x1="124.756" y1="81.2776" x2="136" y2="81.2776" gradientUnits="userSpaceOnUse">
<stop offset="0.395452" stop-color="#084196"/>
<stop offset="1" stop-color="#00C0FF"/>
</linearGradient>
<linearGradient id="paint3_linear_91_1340" x1="124.756" y1="81.2776" x2="136" y2="81.2776" gradientUnits="userSpaceOnUse">
<stop stop-color="#084398"/>
<stop offset="1" stop-color="#00BEFD"/>
</linearGradient>
<linearGradient id="paint4_linear_91_1340" x1="106.357" y1="119.378" x2="113.293" y2="119.378" gradientUnits="userSpaceOnUse">
<stop offset="0.395452" stop-color="#084196"/>
<stop offset="1" stop-color="#00C0FF"/>
</linearGradient>
<linearGradient id="paint5_linear_91_1340" x1="106.357" y1="119.378" x2="113.293" y2="119.378" gradientUnits="userSpaceOnUse">
<stop stop-color="#084398"/>
<stop offset="1" stop-color="#00BEFD"/>
</linearGradient>
<linearGradient id="paint6_linear_91_1340" x1="113.193" y1="102.398" x2="131.337" y2="102.398" gradientUnits="userSpaceOnUse">
<stop offset="0.395452" stop-color="#084196"/>
<stop offset="1" stop-color="#00C0FF"/>
</linearGradient>
<linearGradient id="paint7_linear_91_1340" x1="113.193" y1="102.398" x2="131.337" y2="102.398" gradientUnits="userSpaceOnUse">
<stop stop-color="#084398"/>
<stop offset="1" stop-color="#00BEFD"/>
</linearGradient>
<linearGradient id="paint8_linear_91_1340" x1="39" y1="87.5" x2="114.813" y2="87.5" gradientUnits="userSpaceOnUse">
<stop offset="0.395452" stop-color="#084196"/>
<stop offset="1" stop-color="#00C0FF"/>
</linearGradient>
<linearGradient id="paint9_linear_91_1340" x1="39" y1="87.5" x2="114.813" y2="87.5" gradientUnits="userSpaceOnUse">
<stop stop-color="#084398"/>
<stop offset="1" stop-color="#00BEFD"/>
</linearGradient>
<linearGradient id="paint10_linear_91_1340" x1="107.635" y1="99.1887" x2="125.766" y2="99.1887" gradientUnits="userSpaceOnUse">
<stop offset="0.395452" stop-color="#084196"/>
<stop offset="1" stop-color="#00C0FF"/>
</linearGradient>
<linearGradient id="paint11_linear_91_1340" x1="107.635" y1="99.1887" x2="125.766" y2="99.1887" gradientUnits="userSpaceOnUse">
<stop stop-color="#084398"/>
<stop offset="1" stop-color="#00BEFD"/>
</linearGradient>
</defs>
</svg>

<svg xmlns="http://www.w3.org/2000/svg" width="175" height="175" fill="none"><circle cx="87.5" cy="87.5" r="86.5" fill="#fff" stroke="#00C0FF"/><path fill="url(#a)" stroke="url(#b)" stroke-width="1.2" d="M67.925 73.255h-.107l.05-.646.491-6.35-4.119-4.846a2.265 2.265 0 0 1 1.277-3.679l6.097-1.47 3.332-5.423v-.001a2.27 2.27 0 0 1 3.123-.749l.004.002c.325.203.576.465.762.762l.002.004 3.32 5.404 6.18 1.486a2.26 2.26 0 0 1 1.68 2.68h.356l-.841.988-4.12 4.841.492 6.35-.598.047zm0 0q.043.195.123.385a2.266 2.266 0 0 0 2.953 1.234l.003-.001 5.886-2.427 5.763 2.382zm20.171.351a15.79 15.79 0 0 1-11.194 4.635 15.8 15.8 0 0 1-11.206-4.634c-2.865-2.877-4.643-6.83-4.643-11.207s1.778-8.33 4.643-11.207a15.8 15.8 0 0 1 11.206-4.634c4.366 0 8.331 1.771 11.194 4.634A15.8 15.8 0 0 1 92.74 62.4c0 4.378-1.767 8.331-4.643 11.206Z"/><path fill="url(#c)" stroke="url(#d)" stroke-width="1.2" d="m130.18 76.409.006-.002a4.1 4.1 0 0 1 3.041.343q.11.07.19.111a4.13 4.13 0 0 1 1.839 2.462 4.08 4.08 0 0 1-.384 3.09l-.041.07-.001.004-2.074 3.59-3.125-1.801h-.001l-4.055-2.344 2.018-3.494.005-.008.023-.04.082-.144a4.18 4.18 0 0 1 2.477-1.837Z"/><path fill="url(#e)" stroke="url(#f)" stroke-width="1.2" d="m112.155 118.982-5.126 3.381.371-6.128 2.375 1.364z"/><path fill="url(#g)" stroke="url(#h)" stroke-width="1.2" d="m128.884 89.046 1.633.94-14.871 25.764-1.633-.941z"/><path fill="url(#i)" stroke="url(#j)" stroke-width="1.2" d="M114.201 123.062V135.4H39.6V39.6h74.601l.012 52.996-10.738 18.594a2.3 2.3 0 0 0-.297.68l-.07.069v.159l-.023.039v.188l-.857 14.298v.001c-.027.462.079.955.377 1.392a2.256 2.256 0 0 0 3.144.618l.003-.002zM91.314 47.988l-.4.4.4-.4a20.32 20.32 0 0 0-14.412-5.975 20.32 20.32 0 0 0-14.424 5.975A20.29 20.29 0 0 0 56.511 62.4a20.3 20.3 0 0 0 5.967 14.411 20.35 20.35 0 0 0 14.424 5.975 20.31 20.31 0 0 0 14.412-5.975l-.425-.424.425.424A20.32 20.32 0 0 0 97.289 62.4a20.31 20.31 0 0 0-5.975-14.412Zm9.704 78.76v-.002a2.277 2.277 0 0 0-2.275-2.275H83.336a2.277 2.277 0 0 0-2.275 2.275 2.27 2.27 0 0 0 2.275 2.275h15.407a2.277 2.277 0 0 0 2.275-2.273Zm0-7.259v-.002a2.277 2.277 0 0 0-2.275-2.275H83.336a2.27 2.27 0 0 0-2.275 2.275 2.27 2.27 0 0 0 2.275 2.275h15.407c1.25 0 2.27-1.023 2.275-2.273Zm-45.969-10.215h43.694a2.27 2.27 0 0 0 2.271-2.275 2.275 2.275 0 0 0-2.275-2.263H55.05a2.267 2.267 0 0 0-2.275 2.263 2.277 2.277 0 0 0 2.275 2.275Zm0-8.503h43.694a2.274 2.274 0 0 0 2.271-2.275 2.277 2.277 0 0 0-2.275-2.275H55.05a2.27 2.27 0 0 0-2.275 2.275 2.277 2.277 0 0 0 2.275 2.275Zm0-8.527h43.694c1.245 0 2.271-1 2.271-2.276a2.277 2.277 0 0 0-2.275-2.275H55.05a2.277 2.277 0 0 0-2.275 2.275 2.277 2.277 0 0 0 2.275 2.276Z"/><path fill="url(#k)" stroke="url(#l)" stroke-width="1.2" d="m118.353 94.445.001-.002.024-.038.044-.07c.029-.046.067-.111.102-.19l4.797-8.309 1.626.942-14.866 25.762-1.628-.947z"/><defs><linearGradient id="a" x1="60.453" x2="93.339" y1="62.4" y2="62.4" gradientUnits="userSpaceOnUse"><stop offset=".395" stop-color="#084196"/><stop offset="1" stop-color="#00C0FF"/></linearGradient><linearGradient id="b" x1="60.453" x2="93.339" y1="62.4" y2="62.4" gradientUnits="userSpaceOnUse"><stop stop-color="#084398"/><stop offset="1" stop-color="#00BEFD"/></linearGradient><linearGradient id="c" x1="124.756" x2="136" y1="81.278" y2="81.278" gradientUnits="userSpaceOnUse"><stop offset=".395" stop-color="#084196"/><stop offset="1" stop-color="#00C0FF"/></linearGradient><linearGradient id="d" x1="124.756" x2="136" y1="81.278" y2="81.278" gradientUnits="userSpaceOnUse"><stop stop-color="#084398"/><stop offset="1" stop-color="#00BEFD"/></linearGradient><linearGradient id="e" x1="106.357" x2="113.293" y1="119.378" y2="119.378" gradientUnits="userSpaceOnUse"><stop offset=".395" stop-color="#084196"/><stop offset="1" stop-color="#00C0FF"/></linearGradient><linearGradient id="f" x1="106.357" x2="113.293" y1="119.378" y2="119.378" gradientUnits="userSpaceOnUse"><stop stop-color="#084398"/><stop offset="1" stop-color="#00BEFD"/></linearGradient><linearGradient id="g" x1="113.193" x2="131.337" y1="102.398" y2="102.398" gradientUnits="userSpaceOnUse"><stop offset=".395" stop-color="#084196"/><stop offset="1" stop-color="#00C0FF"/></linearGradient><linearGradient id="h" x1="113.193" x2="131.337" y1="102.398" y2="102.398" gradientUnits="userSpaceOnUse"><stop stop-color="#084398"/><stop offset="1" stop-color="#00BEFD"/></linearGradient><linearGradient id="i" x1="39" x2="114.813" y1="87.5" y2="87.5" gradientUnits="userSpaceOnUse"><stop offset=".395" stop-color="#084196"/><stop offset="1" stop-color="#00C0FF"/></linearGradient><linearGradient id="j" x1="39" x2="114.813" y1="87.5" y2="87.5" gradientUnits="userSpaceOnUse"><stop stop-color="#084398"/><stop offset="1" stop-color="#00BEFD"/></linearGradient><linearGradient id="k" x1="107.635" x2="125.766" y1="99.189" y2="99.189" gradientUnits="userSpaceOnUse"><stop offset=".395" stop-color="#084196"/><stop offset="1" stop-color="#00C0FF"/></linearGradient><linearGradient id="l" x1="107.635" x2="125.766" y1="99.189" y2="99.189" gradientUnits="userSpaceOnUse"><stop stop-color="#084398"/><stop offset="1" stop-color="#00BEFD"/></linearGradient></defs></svg>
